;NotTouching - Generated with ./GenGCode_NotTouching.m

;HOME
G28 X Y Z
;


;***SWEEP AT STEP150mm***

;*ROW AT Y0mm*
G1 F8000 Z7
G1 F8000 Y0
G28 Z
G1 F8000 Z7
G1 F8000 X0
G28 Z
G1 F8000 Z7
G1 F8000 X150
G28 Z
;*ROW AT Y150mm*
G1 F8000 Z7
G1 F8000 Y150
G28 Z
G1 F8000 Z7
G1 F8000 X150
G28 Z
G1 F8000 Z7
G1 F8000 X0
G28 Z
;*ROW AT Y300mm*
G1 F8000 Z7
G1 F8000 Y300
G28 Z
G1 F8000 Z7
G1 F8000 X0
G28 Z
G1 F8000 Z7
G1 F8000 X150
G28 Z
;*ROW AT Y450mm*
G1 F8000 Z7
G1 F8000 Y450
G28 Z
G1 F8000 Z7
G1 F8000 X150
G28 Z
G1 F8000 Z7
G1 F8000 X0
G28 Z
